X:1
T: The Young May Moon
C:
R:Jig
Q:128
K:C
M:6/8
L:1/16
|:G2|c4c2 c4G2|A4G2 G2A2B2|c4c2 d2e2f2|e4c2 c2d2e2|
f4f2 e4e2|d4c2 B2A2G2|A2G2F2 E2F2G2|A4G2 G4G2|
c4G2 c4G2|A2G2G2 G2A2B2|c2B2c2 d2e2f2|e2c2c2 c2d2e2|
f2e2f2 A2B2c2|d2e2c2 B2A2G2|A2G2F2 E2F2G2|A4G2 G4:|
